X:1
T:He Will Hide Me
T: James McGranahan
T:He Will Hide Me
T:Public Domain, 
T:Public Domain, 
T:Public Domain, 
C:James McGranahan
Z:Public Domain,
%%score ( 1 2 ) ( 3 4 )
L:1/8
M:9/8
K:G
V:1 treble 
V:2 treble 
V:3 bass 
V:4 bass 
V:1
 (DG)[DA] | [GB]3 [GB]3 ([Ac][GB])[FA] | [GB]3 [DG]3 (DG)[GB] | [Gd]3- [Gd]2 [Gd] (ed)[Fc] | %4
w: 1.~When * the|of life are * rag-|ing, Tem- pests * wild|sea * and land, * I|
w: 2.~Tho’ * He|send some af- * flic-|tion, ’Twill but * make|long * for home; * For|
w: 3.~En- * e-|may strive to * in-|jure, Sa- tan * all|arts * em- ploy; * He|
w: 4.~So, * while|the cross I’m * bear-|ing, Meet- ing * storms|bil- * lows wild, * Je-|
 [GB]6 ([GB]A)[GB] | [Fc]3 [FA]3 ([FA]G)[FA] | [DB]3 [DG]3 (GF)[DG] | [CA]3- [CA]2 [EG] (FE)[DF] | %8
w: seek a * place|of ref- uge, * In|the sha- dow * of|hand. * * * * *|
w: love and * not|in an- ger, * All|His chas- ten- * ings|come. * He will * hide|
w: turn what * seems|to harm me * In-|to ev- er- * last-|joy. * * * * *|
w: for my * soul|is car- ing, * Naught|can harm His * Fa-|child. * * * * *|
 [DG]6 ||"^Refrain" (EG)c | (G2 G) (E2 E) (DG)B | (G2 G) (G2 G) (DF)A | (F2 F cd)[Fc] [GB]2 [Ac] | %13
w: |||||
w: He|will * hide|me, * Where * no * harm|be- * tide * me; * He|me, * * * safe- ly hide|
w: |||||
w: |||||
 [Bd]3 (G2 =F) (EG)c | (G2 G) (E2 E) (DG)B | (G2 G) (G2 G) (DF)A | (F2 F cd)[Fc] [GB]2 [FA] | %17
w: ||||
w: the sha- * dow * *|His * hand. * * * *|||
w: ||||
w: ||||
 [DG]6 |] %18
w: |
w: |
w: |
w: |
V:2
 D2 x | x9 | x6 D2 x | x6 F2 x | x9 | x9 | x6 D2 x | x6 D2 x | x6 || x3 | e3 c3 x3 | d3 B3 x3 | %12
w: storms||on|will|||God’s||||||
w: may||me|in|||will|me,|||can e’er|will hide|
w: mies||his|will|||ing||||||
w: here||and|sus|||ther’s||||||
 c3- F2 x4 | x3 B3 x3 | e3 c3 x3 | d3 B3 x3 | c3- F2 x4 | x6 |] %18
w: ||||||
w: me, In|of|||||
w: ||||||
w: ||||||
V:3
 [G,B,]2 [G,C] | [G,D]3 [G,D]3 [D,D]2 [D,D] | [G,,D]3 [G,,B,]3 [G,B,]2 [G,D] | %3
w: ~ ~|~ ~ ~ ~|~ ~ ~ ~|
 [G,B,]3- [G,B,]2 [G,B,] [D,A,]2 [D,D] | [G,D]6 ([G,D][F,C])[G,B,] | [D,A,]3 [D,C]3 (CB,)[D,A,] | %6
w: ~ * ~ ~ ~|~ ~ * ~|~ ~ ~ * ~|
 [G,,G,]3 [G,,B,]3 ([G,,B,][A,,A,])[B,,G,] | [C,E,]3- [C,E,]2 [C,C] [D,C]2 [D,C] | [G,,B,]6 || z3 | %10
w: ~ ~ ~ * ~|~ * ~ ~ ~|He||
 [C,C]2 [C,C] [C,G,]2 [C,G,] z3 | [G,B,]2 [G,B,] [G,D]2 [G,D] z3 | %12
w: will hide me, He|will hide me, Where|
 [D,A,]2 [D,A,] (A,B,)[D,A,] [D,G,]2 [D,F,] | (G,2 B,) [G,,D]3 z3 | %14
w: no harm can * e’er be- tide|He * will|
 [C,C]2 [C,C] [C,G,]2 [C,G,] z3 | [G,B,]2 [G,B,] [G,D]2 [G,D] z3 | %16
w: me, safe- ly hide|me, In the sha-|
 [D,A,]2 [D,A,] (A,B,)[D,A,] [D,D]2 [D,C] | [G,,B,]6 |] %18
w: dow of His * hand. * *||
V:4
 x3 | x9 | x9 | x9 | x9 | x6 D,2 x | x9 | x9 | x6 || x3 | x9 | x9 | x3 D,2 x4 | G,,3 x6 | x9 | x9 | %16
w: |||||~|||||||me;|hide|||
 x3 D,2 x4 | x6 |] %18
w: ||

